X:1
T:Title
%%score 1 { 2 | 3 }
L:1/8
Q:1/4=125
M:3/4
K:Ab
V:1 treble nm="Grand Piano, Soprano"
V:2 bass nm="Choir Pad, Bass"
V:3 bass 
V:1
 [Ec]3 [DB] [CA]2 | [CE]3 [B,D] [A,C]2 | [CE]2 [DF]2 [DG]2 | [EA]6 | [EB]3 [Ec] [Ed]2 | %5
w: By~Lewis~Henry~Redner * *|||||
 [Ec]3 [EB] [FA]2 | [GB]2 [_Gc]2 [F=d]2 | [Ee]6 | [Ed]3 [Ee] [Ed]2 | [Ec]2 [Ec]2 [EA]2 | %10
w: |||||
 [=Ec]2 [Fc]2 [GB]2 | A6 | [FB]3 [FA] [DF]2 | [CE]2 [CA]2 [Ec]2 | [Fd]2 [Ec]2 [DB]2 | [CA]6 | %16
w: ||||||
 [Ec]3 [EB] [EA]2 | [Ad]3 [Ae] [Af]2 | [Ee]2 [Fc]2 [GB]2 | A6- | A2 z2 z2 |] %21
w: |||||
V:2
 E,3 E, E,2 | E,3 E, E,2 | E,2 A,2 B,2 | C6 | G,3 A,[K:treble] C2 | A,3 D C2 | %6
 B,2[K:bass] =A,2 _A,2 | G,6 | G,3 G, B,2 | A,2 A,2[K:treble] C2 | C2 C2 C2 | C6 | %12
 D3 D[K:bass] A,2 | A,2 C2 A,2 | G,2 G,2 G,2 | A,6 | A,3[K:treble] D C2 | A,3 C D2 | C2 E2 D2 | %19
 C6- | C2 z2 z2 |] %21
V:3
 A,,3 A,, A,,2 | A,,3 A,, A,,2 | A,,2 A,,2 A,,2 | A,6 | E,3 E, E,2 | z2 z A, F,2 | B,,2 B,,2 B,,2 | %7
 E,6 | E,3 E, E,2 | z2 z2 A,2 | C,2 =D,2 =E,2 | F,6 | D,3 D, D,2 | E,2 E,2 E,2 | E,2 E,2 E,2 | %15
 [A,,E,]6 | z2 z A, A,2 | F,3 E, D,2 | E,2 E,2 E,2 | [A,,E,]6- | [A,,E,]2 z2 z2 |] %21

